X:325
T: Denis O'Keeffe's
S: "Johnny O'Leary of Sliabh Luachra" (#83)
Z: B.Black
L: 1/8
M: 12/8
Q: 360
R: slide
K: Amix
E2A ABA G2A Bcd|e2B dBA G2G F2G|
E2A ABA G2A Bcd|1 e z B ddB A3 A3 :|2\
e2e d2B A3 A3 ||
efe efe ded dcd|e2A BBA G2G F2G|
E2A ABA G2A Bcd|efe dcB A3 A3|
e3 efe d z d-dcd|e2A BBA G2G F2G|
E2A ABA G2A Bcd|efe dcB A3 A3 ||
